Obsidian/status/22s/hangouts-working.svg

<svg height="22" width="22" xmlns="http://www.w3.org/2000/svg"><path d="m10.503906 3c-.01002.022434-.031798.014094-.048828.015625-.238428.020217-.4756194.0449756-.7109374.0878906-1.7195319.3132829-3.1316255 1.1277522-4.2246094 2.4394532-.8990689 1.0787165-1.3929917 2.3155285-1.5 3.6953124-.051804.6687263-.0020119 1.6295048.1503907 2.2832028.1131786.486254.2825181.957181.5097656 1.40625.019952.03822.0382828.07702.0585937.115235.3733397.707033.853222 1.336695 1.4550782 1.880859.3168343.28646.6568493.545598 1.0234375.769531.9706644.592534 2.0203447 1.176627 3.1445311 1.292969l.246094.025391c.08179.0011.393109.021215.392578.101562-.0037.685707-.002053 1.114944-.001953 1.800781.000089.026611.002306.052848.003906.085938 0 0 .274355-.124261.507813-.234375 1.16359-.568634 2.240064-1.264345 3.210937-2.113281.218117-.190663.426227-.391547.626953-.59961.08595-.08898.171687-.180643.257813-.269531.133051-.136837.247628-.289508.373047-.433594.144852-.166182.276037-.343697.404296-.521484.283572-.39293.537124-.801397.75-1.234375.107678-.218898.210035-.44021.300782-.666016.003-.0042.005912-.007088.007812-.011718.247299-.618315.405878-1.257662.490235-1.914063.02946-.228629.048467-.459543.060547-.689453.025719-.4950446-.00679-1.2882961-.09961-1.7753906-.247025-1.2990836-.839366-2.434062-1.773437-3.4023438-.394031-.4087979-.836181-.7628851-1.324219-1.0644531-.908069-.5616756-1.899473-.907358-2.972656-1.0292969-.13083-.0149262-.263609-.0114075-.392578-.0410156zm-2.503906 6a1 1 0 0 1 1 1 1 1 0 0 1 -1 1 1 1 0 0 1 -1-1 1 1 0 0 1 1-1zm3 0a1 1 0 0 1 1 1 1 1 0 0 1 -1 1 1 1 0 0 1 -1-1 1 1 0 0 1 1-1zm3 0a1 1 0 0 1 1 1 1 1 0 0 1 -1 1 1 1 0 0 1 -1-1 1 1 0 0 1 1-1z" fill="#d3dae3"/></svg>

<svg xmlns="http://www.w3.org/2000/svg" width="22" height="22" version="1.1">
 <defs>
  <style id="current-color-scheme" type="text/css">
   .ColorScheme-Text { color:#d3dae3; } .ColorScheme-Highlight { color:#5294e2; }
  </style>
 </defs>
 <path style="fill:currentColor" class="ColorScheme-Text" d="M 10.503906 3 C 10.493886 3.022434 10.472108 3.014094 10.455078 3.015625 C 10.21665 3.035842 9.9794586 3.0606006 9.7441406 3.1035156 C 8.0246087 3.4167985 6.6125151 4.2312678 5.5195312 5.5429688 C 4.6204623 6.6216853 4.1265395 7.8584973 4.0195312 9.2382812 C 3.9677272 9.9070075 4.0175193 10.867786 4.1699219 11.521484 C 4.2831005 12.007738 4.45244 12.478665 4.6796875 12.927734 C 4.6996395 12.965954 4.7179703 13.004754 4.7382812 13.042969 C 5.1116209 13.750002 5.5915032 14.379664 6.1933594 14.923828 C 6.5101937 15.210288 6.8502087 15.469426 7.2167969 15.693359 C 8.1874613 16.285893 9.2371416 16.869986 10.361328 16.986328 L 10.607422 17.011719 C 10.689212 17.012819 11.000531 17.032934 11 17.113281 C 10.9963 17.798988 10.997947 18.228225 10.998047 18.914062 C 10.998136 18.940673 11.000353 18.96691 11.001953 19 C 11.001953 19 11.276308 18.875739 11.509766 18.765625 C 12.673356 18.196991 13.74983 17.50128 14.720703 16.652344 C 14.93882 16.461681 15.14693 16.260797 15.347656 16.052734 C 15.433606 15.963754 15.519343 15.872091 15.605469 15.783203 C 15.73852 15.646366 15.853097 15.493695 15.978516 15.349609 C 16.123368 15.183427 16.254553 15.005912 16.382812 14.828125 C 16.666384 14.435195 16.919936 14.026728 17.132812 13.59375 C 17.24049 13.374852 17.342847 13.15354 17.433594 12.927734 C 17.436594 12.923534 17.439506 12.920646 17.441406 12.916016 C 17.688705 12.297701 17.847284 11.658354 17.931641 11.001953 C 17.961101 10.773324 17.980108 10.54241 17.992188 10.3125 C 18.017907 9.8174554 17.985398 9.0242039 17.892578 8.5371094 C 17.645553 7.2380258 17.053212 6.1030474 16.119141 5.1347656 C 15.72511 4.7259677 15.28296 4.3718805 14.794922 4.0703125 C 13.886853 3.5086369 12.895449 3.1629545 11.822266 3.0410156 C 11.691436 3.0260894 11.558657 3.0296081 11.429688 3 L 10.503906 3 z M 8 9 A 1 1 0 0 1 9 10 A 1 1 0 0 1 8 11 A 1 1 0 0 1 7 10 A 1 1 0 0 1 8 9 z M 11 9 A 1 1 0 0 1 12 10 A 1 1 0 0 1 11 11 A 1 1 0 0 1 10 10 A 1 1 0 0 1 11 9 z M 14 9 A 1 1 0 0 1 15 10 A 1 1 0 0 1 14 11 A 1 1 0 0 1 13 10 A 1 1 0 0 1 14 9 z"/>
</svg>
